4. Skillbox/img/eye-circle-one.svg

<svg fill="none" height="80" viewBox="0 0 80 80" width="80" xmlns="http://www.w3.org/2000/svg"><path d="m40 0c-5.2529 0-10.4543 1.03463-15.3073 3.04482-4.8531 2.01019-9.2626 4.95656-12.977 8.67088-7.50143 7.5015-11.7157 17.6756-11.7157 28.2843s4.21427 20.7828 11.7157 28.2843c3.7144 3.7143 8.1239 6.6607 12.977 8.6709 4.853 2.0102 10.0544 3.0448 15.3073 3.0448 10.6087 0 20.7828-4.2143 28.2843-11.7157 7.5014-7.5015 11.7157-17.6756 11.7157-28.2843 0-5.2529-1.0346-10.4543-3.0448-15.3073-2.0102-4.8531-4.9566-9.2626-8.6709-12.977-3.7144-3.71432-8.1239-6.66069-12.977-8.67088-4.853-2.01019-10.0544-3.04482-15.3073-3.04482zm0 56c-10.52 0-20-6.28-24-16 5.52-13.24 20.76-19.52 34-14 6.32 2.64 11.36 7.68 14 14-4 9.72-13.48 16-24 16z" fill="#3f2aff"/><path clip-rule="evenodd" d="m40.3571 30.3125c-2.664 0-5.2189 1.0583-7.1026 2.942s-2.942 4.4386-2.942 7.1026 1.0583 5.2189 2.942 7.1027c1.8837 1.8837 4.4386 2.942 7.1026 2.942 2.6641 0 5.2189-1.0583 7.1027-2.942 1.8837-1.8838 2.942-4.4387 2.942-7.1027s-1.0583-5.2189-2.942-7.1026c-1.8838-1.8837-4.4386-2.942-7.1027-2.942zm-.0006 14.5647c2.4964 0 4.5201-2.0237 4.5201-4.5201 0-2.4963-2.0237-4.5201-4.5201-4.5201s-4.5201 2.0238-4.5201 4.5201c0 2.4964 2.0237 4.5201 4.5201 4.5201z" fill="#212133" fill-rule="evenodd"/></svg>

<svg width="80" height="80" viewBox="0 0 80 80" fill="none" xmlns="http://www.w3.org/2000/svg">
<path d="M40 0C34.7471 0 29.5457 1.03463 24.6927 3.04482C19.8396 5.05501 15.4301 8.00138 11.7157 11.7157C4.21427 19.2172 0 29.3913 0 40C0 50.6087 4.21427 60.7828 11.7157 68.2843C15.4301 71.9986 19.8396 74.945 24.6927 76.9552C29.5457 78.9654 34.7471 80 40 80C50.6087 80 60.7828 75.7857 68.2843 68.2843C75.7857 60.7828 80 50.6087 80 40C80 34.7471 78.9654 29.5457 76.9552 24.6927C74.945 19.8396 71.9986 15.4301 68.2843 11.7157C64.5699 8.00138 60.1604 5.05501 55.3073 3.04482C50.4543 1.03463 45.2529 0 40 0ZM40 56C29.48 56 20 49.72 16 40C21.52 26.76 36.76 20.48 50 26C56.32 28.64 61.36 33.68 64 40C60 49.72 50.52 56 40 56Z" fill="#3F2AFF"/>
<path fill-rule="evenodd" clip-rule="evenodd" d="M40.3571 30.3125C37.6931 30.3125 35.1382 31.3708 33.2545 33.2545C31.3708 35.1382 30.3125 37.6931 30.3125 40.3571C30.3125 43.0211 31.3708 45.576 33.2545 47.4598C35.1382 49.3435 37.6931 50.4018 40.3571 50.4018C43.0212 50.4018 45.576 49.3435 47.4598 47.4598C49.3435 45.576 50.4018 43.0211 50.4018 40.3571C50.4018 37.6931 49.3435 35.1382 47.4598 33.2545C45.576 31.3708 43.0212 30.3125 40.3571 30.3125ZM40.3565 44.8772C42.8529 44.8772 44.8766 42.8535 44.8766 40.3571C44.8766 37.8608 42.8529 35.837 40.3565 35.837C37.8601 35.837 35.8364 37.8608 35.8364 40.3571C35.8364 42.8535 37.8601 44.8772 40.3565 44.8772Z" fill="#212133"/>
</svg>
